X: 33
T: Sonata in C major, L.267, K.52
C: Domenico Scarlatti
%%abc-version 2.0
%%abcx-abcm2ps-target-version 5.9.1 (29 Sep 2008)
%%abc-creator hum2abc beta
%%abcx-conversion-date 2021/06/28 10:15:40
%%abc-copyright 2021 Craig Stuart Sapp
%%abc-edited-by Craig Stuart Sapp
%%abc-edited-by Craig Stuart Sapp
%%abcx-initial-encoding-date 2006/08/11
%%humdrum-veritas 1386354324
%%humdrum-veritas-data 2304384133
%%linebreak <none>
%%barnumbers 0
L: 1/8
M: 4/4
N: Derived from L267K052.krn
Q: "Andante moderato ([quarter]=80)" 1/4=80
%%staves {1 2}
V: 1 clef=treble
V: 2 clef=bass
K: F
%%postscript /mark1hd {gsave 1 0.2 0.2 setrgbcolor hd grestore}!
%%deco head-m1hd 0 mark1hd 0 0 0 
[V:1] [D2F2d2]>[G2^c2e2][A3d3f3][Bg] | 
[V:2] D,B,A,G, F,E,D,^C, | 
[V:1] x4^cde2- & .[Adf][G2e2][F2d2]<A2G | 
[V:2] D,E,F,G, A,=B,^CA, | 
[V:1] ed2ex4 & F2E^C2<[A2d2f2][Beg] | 
[V:2] DF,G,A, D,D=CB, | 
[V:1] x3e/d/x3B/A/ & [c2f2a2]>[B2g2] [cf][G2e2][Fd] | 
[V:2] [A,C][G,B,][F,A,][G,B,][A,2C2][B,2-D2] | 
[V:1] c2z2Bg2f & [EG]FGAG2A2 | 
[V:2] C2z2x4 & B,A,G,F,[E,2G,2B,2C2][F,2A,2C2] | 
[V:1] efga2<b2a & GABc def2- | 
[V:2] G,CB,A,[G,2B,2][F,2C2F2] & C,2z2x4 | 
[V:1] gc'2b- bag2 & fefg cf2e- | 
[V:2] C,CDE FA,B,C | 
[V:1] edc2B2A2 & zB2A2G2F- | 
[V:2] fFGF- FE/D/C2 & DD,E,F, G,G,,A,,B,, | 
[V:1] Gc2B2AG2 & FEFG CF2E- | 
[V:2] x4F,,F,2C- & C,C,,D,,E,,F,,2C,2 | 
[V:1] F2G2-GF2E/D/ & ED2Cz4 | 
[V:2] CB,2A,/G,/A,2B,2- & D,2E,2F,2G,2- | 
[V:1] EFGA .Bg2f- & z2EFG2A2 | 
[V:2] B,CB,A,x4 & G,A,G,F,[E,2G,2B,2C2][F,2A,2C2-] | 
[V:1] fe/d/ ef2<B2A & G2>A2 BEF2- | 
[V:2] C,2z2[G,2B,2C2][F,2C2] & CCB,A,x4 | 
[V:1] Gc2B B_A/G/ Ac & FEFGz4 | 
[V:2] C4C2F2- & CC,D,E,F,2z2 | 
[V:1] f2>_e2 dc=Bc & z2<F2z GF_A | 
[V:2] F_EDC G,EDC & F,4G,4 | 
[V:1] Gd_e=B _Bg_a=e & G z _EFG2_AB | 
[V:2] D2x6 & =B,G,CD =ECFG | 
[V:1] fd_e=B cg_a=e & cF_ED [CG]=E_A_B | 
[V:2] _A_A,G,F, =E,CFG | 
[V:1] fd_e=B c=ab=e & cF_ED [CG] =A_B2 | 
[V:2] _A_A,G,F, =E, FG2 | 
[V:1] fc'2b2a/f/g2 & A cdg/f/ e z z e- | 
[V:2] =AA,B,2[K:clef=treble]C4 & x4CABc- | 
[V:1] f2g3f/e/d2 & ed2c/B/A3G/F/ | 
[V:2] cB2A/G/[K:clef=bass]F3E/D/ & D2E2FF,B,2 | 
[V:1] c FGA Bg2f & G zz2G2A2 | 
[V:2] E zz2x4 & B,A,G,F,[E,2G,2B,2C2][F,2A,2C2] | 
[V:1] ed2c/B/A2G2 & GF2<G2F2E | 
[V:2] C2B,2x4 & C,D,E,2[F,2C2][C,2G,2C2] | 
[V:1] F2>G2 CF2[G,B,CE]- & FC2B,- B,A,G, x | 
[V:2] F,,C,D,E, F,F,,C,C,, | 
[V:1] [G,B,CE][A,2C2F2][B,EG] A-[F2A2][EGB] & x4C2C2 |[1 
[V:2] F,,2F,,2F,,2F,,2 | 
[V:1] [GA-][F2A2][EGB]!mordent![C2F2A2]z2 & C2C2x4 :|][2 
[V:2] F,,2F,,2F,,2z2 :|]  
[V:1] [GA][F2A2][EGB] [CFA] [A,C][=B,D][CE] & C2C2x4 ]|: 
[V:2] F,,2F,,2F,,F,2E, ]|:  
[V:1] [DF][=B,D][^CE][DF] [EG][D2F2][CE] | 
[V:2] D,G,2F,[E,2G,2][A,,2A,2] | 
[V:1] ^FG AB/c/d3g & d2FG ABAG | 
[V:2] D,2z2D3B,/C/ & D,[B,D][A,C][G,D-] ^F,G,=F,_E, | 
[V:1] ^f_edc- cB/c/d2 & AG/^F/GA DG2=F | 
[V:2] DCB,A,z4 & D,2D,2G,B,2=B, | 
[V:1] c2GA/B/c3f & EF EF GAGF | 
[V:2] C,2x2C3A,/=B,/ & C,[A,C][G,B,][F,C-] E,F,E,D, | 
[V:1] edcB2A2G/F/ & GF/E/FG CF2E/D/ | 
[V:2] CB,A,G,x4 & C,2C,2F,2C2- | 
[V:1] Gc2B- BA/G/A!accent!d- & x6FE/D/ | 
[V:2] ED/C/ DD-D2x2 & CB,/A,/G,2D,3C/B,/ | 
[V:1] dc2=B/A/ Bcdc/d/ & EA2^G/^F/ GAGA | 
[V:2] x2E3D/C/DE- & A,2E,3z2=B,/A,/ | 
[V:1] e2>a2 ^g=fed- & =BcBA BA/G/AB | 
[V:2] E3C/D/ EDC=B, & ^G,A,=G,F,E,2E,2 | 
[V:1] d^c/=B/cd ed2c & EA2D =GFEA | 
[V:2] A,3G,/F,/ E,F,G,A,- & A,A,,2=B,, ^C,D,E,A,, | 
[V:1] d2>_e2 BA/G/Ad & DD2<G2=F/=E/F2- | 
[V:2] A,G,/^F,/G,3x3 & B,,2>C,2 D,D2C | 
[V:1] !head-m1hd!dG2c2g2f- & F _E/D/EF G=B/A/Bd | 
[V:2] x2>D2 _ED/C/D2 & =B,C2_A,G,2G,2 | 
[V:1] f=e/d/ef gf2e & Gc2B/A/ GAB2- | 
[V:2] C2C4B,2 & CC,2D, E,F,G,2 | 
[V:1] fc2d _edc2- & BA/G/Ad2<A2A- | 
[V:2] CF2_E/D/ CDEF & F,2F,2F,2F,2 | 
[V:1] cd2g- gf/g/ab & A B/A/B2Ad2d- | 
[V:2] DG2=E ^CD/E/FD & G,2G,4F,G, | 
[V:1] f_e/d/ ea d>^c dg & dc/B/c3B/A/B2- | 
[V:2] A,A2G ^FG2=F | 
[V:1] =c>B cf B>A Be & BA/G/A3G/^F/G2- | 
[V:2] EF2E DE2D | 
[V:1] A2>d2 ^cdef/g/ & G=F/E/FG AAGA | 
[V:2] ^CD2=C/B,/ [A,E][F,D][E,^C][D,D] | 
[V:1] afed- d^c/=B/cd & A3F/G/ AE2F | 
[V:2] A,2A,2A,A,2G,/F,/ & ^C,D,=C,B,,A,,2z2 | 
[V:1] ef2<g2^f/e/fg & GA_BA-A2AB | 
[V:2] E,D,2^C, D,D2=C/B,/ & z4D,2z2 | 
[V:1] ab2<c'2b2[fa]- & cd_ed- d dc2 | 
[V:2] A,G,2^F, [G,D] GE=F | 
[V:1] [fa][=e2g2][d2f2][c2e2][Bd]- & B2A2G2F2 | 
[V:2] DECD B,CA,B,/A,/ | 
[V:1] [Bd] ^cde fg/f/ed & EA2=B/c/ d/=c/_B/A/ GF | 
[V:2] G,A,/G,/[F,A,][E,G,] [D,A,][G,,2G,2][G,,G,] | 
[V:1] ^c efc d ab^f & EA2[GB] Ad2[=c_e] | 
[V:2] [A,,A,] ^CDE F ^FGA | 
[V:1] g=f2e/d/ e d=c_B & dd2^c/=B/ c AGF | 
[V:2] B AGG2FED | 
[V:1] A2>G2 A [CE][DF][G,B,C] & EFED ^Cx3 | 
[V:2] ^CD=C_B,A,,2A,,2 | 
[V:1] [^F,A,D] [^FA][GB][=C_E^F] [=B,DG] [^G=B][Ac][D=F^G] | 
[V:2] A,,2A,,2A,,2A,,2 | 
[V:1] [^C=EA] [^ce][df][G_Bc] [FAd] [DFB][CEA][=B,D^G] | 
[V:2] A,,2A,,2A,,2A,,2 | 
[V:1] [^CEA]A2=G2F/G/FE & x CDE- ED2C- | 
[V:2] z2A,2x4 & A,A,,=B,,^C, [D,A,]G,,A,,A,, | 
[V:1] E^F2G2F/E/ FG & CD2=C/B,/D3E | 
[V:2] [D,,2D,2][D,,2D,2][D,,2D,2][D,,2D,2] | 
[V:1] [^FA][G2B2][A2c2][G/B/][F/A/] B^c & D2D2D2GF/E/ |[1 
[V:2] [D,,2D,2][D,,2D,2][D,,2D,2][D,,2D,2] | 
[V:1] [DAd]d2=c/B/ [CFA] [A,C][=B,D][CE] & x [=F/-B/][F/A/] G/F/E/D/x4 :|][2 
[V:2] [D,,D,] D,E,2F,F,2E, :|]  
[V:1] !fermata![D8^F8A8d8] |]  
[V:2] !fermata![D,,8D,8] |]  


